X:20
T:Red Bird Reel
M:2/4
L:1/16
Z:jason
B: Bob Walters, 1950
K:A
a2 | (3(agf)ed [e2c2][e2c2] | (3(agf)e2 [a2A2][a2A2] | (3(agf)ed [e2c2][e2c2] | BAGB [e2A2][e2A2] |
(3(agf)ed [e2c2][e2c2] | (3(agf)e2 [a2A2][a2A2] | (3(agf)ed c2cA | BABc [e2A2] :|
|: E2 | [AE][e2A2][eA] [e2c2][ec][eA] | BABA [e2c2][e2c2] | [AE][e2A2][eA] [e2c2][e2c2] | BABc [e2A2][e2A2] |
[AE][e2A2][eA] [e2c2][ec][eA] | BABA [e2c2]cd | eagf edcA | BAGB [e2A2] :|

